icons/core/inbox.svg

<svg width="32" height="32" viewBox="0 0 32 32" fill="none" xmlns="http://www.w3.org/2000/svg">
<path fill-rule="evenodd" clip-rule="evenodd" d="M9.64393 4C8.85964 4 8.14773 4.45841 7.82319 5.17239L3.17927 15.389C3.06113 15.6489 3 15.9311 3 16.2166V26C3 27.1046 3.89543 28 5 28H27C28.1046 28 29 27.1046 29 26V16.2166C29 15.9311 28.9389 15.6489 28.8207 15.389L24.1768 5.17239C23.8523 4.45841 23.1404 4 22.3561 4H9.64393ZM9.64393 6H22.3561L26.9015 16L21.618 16C20.8605 16 20.168 16.428 19.8292 17.1056L18.382 20H13.618L12.1708 17.1056C11.832 16.428 11.1395 16 10.382 16H5.09847L9.64393 6ZM5 18L5 26H27V18L21.618 18L20.1708 20.8944C19.832 21.572 19.1395 22 18.382 22H13.618C12.8605 22 12.168 21.572 11.8292 20.8944L10.382 18H5Z" fill="black"/>
</svg>

<svg viewBox="0 0 32 32" xmlns="http://www.w3.org/2000/svg"><path fill-rule="evenodd" d="M9.644 4a2 2 0 00-1.82 1.172L3.178 15.39a2 2 0 00-.179.828V26a2 2 0 002 2h22a2 2 0 002-2v-9.783c0-.286-.061-.568-.18-.828L24.178 5.172A2 2 0 0022.357 4H9.643zm0 2h12.712l4.545 10h-5.283a2 2 0 00-1.789 1.106L18.382 20h-4.764l-1.447-2.894A2 2 0 0010.382 16H5.098L9.644 6zM5 18v8h22v-8h-5.382l-1.447 2.894A2 2 0 0118.382 22h-4.764a2 2 0 01-1.789-1.106L10.382 18H5z"/></svg>
